report_00007_2020-12-11T15:55:29.892Z/network-server-latency/comparison/line/4_vs_5.svg

<svg width="640" height="500" xmlns="http://www.w3.org/2000/svg" xmlns:xlink="http://www.w3.org/1999/xlink"><path fill="#fff" d="M0 0h640v500H0z"/><defs><path id="d" stroke-width=".222" stroke="currentColor" d="M-1-1h2v2h-2z"/><path id="b" stroke-width=".222" stroke="currentColor" d="M0-1.33l-1.33 2h2.66z"/><path id="f" stroke-width=".222" stroke="currentColor" d="M0 1.33L1.265.411.782-1.067l-1.564-.009-.483 1.487z"/><use xlink:href="#b" id="c" stroke="currentColor" transform="rotate(180)"/><use xlink:href="#d" id="e" stroke="currentColor" transform="rotate(45)"/><circle id="a" stroke-width=".222" stroke="currentColor" cx="0" cy="0" r="1"/></defs><g fill="none" color="#000" stroke="currentColor"><path stroke="#000" d="M45.6 400.7h9m560.4 0h-9"/><text transform="translate(37.3 404.6)" stroke="none" fill="#000" font-family="Arial" font-size="12" text-anchor="end"><tspan>5</tspan></text></g><g fill="none" color="#000" stroke="currentColor"><path stroke="#000" d="M45.6 343h9m560.4 0h-9"/><text transform="translate(37.3 346.9)" stroke="none" fill="#000" font-family="Arial" font-size="12" text-anchor="end"><tspan>6</tspan></text></g><g fill="none" color="#000" stroke="currentColor"><path stroke="#000" d="M45.6 285.4h9m560.4 0h-9"/><text transform="translate(37.3 289.3)" stroke="none" fill="#000" font-family="Arial" font-size="12" text-anchor="end"><tspan>7</tspan></text></g><g fill="none" color="#000" stroke="currentColor"><path stroke="#000" d="M45.6 227.7h9m560.4 0h-9"/><text transform="translate(37.3 231.6)" stroke="none" fill="#000" font-family="Arial" font-size="12" text-anchor="end"><tspan>8</tspan></text></g><g fill="none" color="#000" stroke="currentColor"><path stroke="#000" d="M45.6 170.1h9m560.4 0h-9"/><text transform="translate(37.3 174)" stroke="none" fill="#000" font-family="Arial" font-size="12" text-anchor="end"><tspan>9</tspan></text></g><g fill="none" color="#000" stroke="currentColor"><path stroke="#000" d="M45.6 112.4h9m560.4 0h-9"/><text transform="translate(37.3 116.3)" stroke="none" fill="#000" font-family="Arial" font-size="12" text-anchor="end"><tspan>10</tspan></text></g><g fill="none" color="#000" stroke="currentColor"><path stroke="#000" d="M45.6 54.8h9m560.4 0h-9"/><text transform="translate(37.3 58.7)" stroke="none" fill="#000" font-family="Arial" font-size="12" text-anchor="end"><tspan>11</tspan></text></g><g fill="none" color="#000" stroke="currentColor"><path stroke="#000" d="M45.6 446v-9m0-418.9v9"/><text transform="translate(45.6 467.9)" stroke="none" fill="#000" font-family="Arial" font-size="12" text-anchor="middle"><tspan>0</tspan></text></g><g fill="none" color="#000" stroke="currentColor"><path stroke="#000" d="M103.1 446v-9m0-418.9v9"/><text transform="translate(103.1 467.9)" stroke="none" fill="#000" font-family="Arial" font-size="12" text-anchor="middle"><tspan>10</tspan></text></g><g fill="none" color="#000" stroke="currentColor"><path stroke="#000" d="M160.6 446v-9m0-418.9v9"/><text transform="translate(160.6 467.9)" stroke="none" fill="#000" font-family="Arial" font-size="12" text-anchor="middle"><tspan>20</tspan></text></g><g fill="none" color="#000" stroke="currentColor"><path stroke="#000" d="M218.1 446v-9m0-418.9v9"/><text transform="translate(218.1 467.9)" stroke="none" fill="#000" font-family="Arial" font-size="12" text-anchor="middle"><tspan>30</tspan></text></g><g fill="none" color="#000" stroke="currentColor"><path stroke="#000" d="M275.7 446v-9m0-418.9v9"/><text transform="translate(275.7 467.9)" stroke="none" fill="#000" font-family="Arial" font-size="12" text-anchor="middle"><tspan>40</tspan></text></g><g fill="none" color="#000" stroke="currentColor"><path stroke="#000" d="M333.2 446v-9m0-418.9v9"/><text transform="translate(333.2 467.9)" stroke="none" fill="#000" font-family="Arial" font-size="12" text-anchor="middle"><tspan>50</tspan></text></g><g fill="none" color="#000" stroke="currentColor"><path stroke="#000" d="M390.7 446v-9m0-418.9v9"/><text transform="translate(390.7 467.9)" stroke="none" fill="#000" font-family="Arial" font-size="12" text-anchor="middle"><tspan>60</tspan></text></g><g fill="none" color="#000" stroke="currentColor"><path stroke="#000" d="M448.2 446v-9m0-418.9v9"/><text transform="translate(448.2 467.9)" stroke="none" fill="#000" font-family="Arial" font-size="12" text-anchor="middle"><tspan>70</tspan></text></g><g fill="none" color="#000" stroke="currentColor"><path stroke="#000" d="M505.7 446v-9m0-418.9v9"/><text transform="translate(505.7 467.9)" stroke="none" fill="#000" font-family="Arial" font-size="12" text-anchor="middle"><tspan>80</tspan></text></g><g fill="none" color="#000" stroke="currentColor"><path stroke="#000" d="M563.2 446v-9m0-418.9v9"/><text transform="translate(563.2 467.9)" stroke="none" fill="#000" font-family="Arial" font-size="12" text-anchor="middle"><tspan>90</tspan></text></g><path stroke="#000" d="M45.6 18.1V446H615V18.1H45.6z" fill="none" color="#000"/><text transform="translate(271.5 485.9)" stroke="none" fill="#000" font-family="Arial" font-size="12" text-anchor="end" color="#000"><tspan>pages+cached+noadtech</tspan></text><path stroke="#9400D3" d="M279.8 482H322M45.6 267.2l5.8-37.9 5.7 37.3 5.8 34.7 5.7-54.6 5.8 14.1 5.7 17.5 5.8-31.2 5.7-43.9L97.4 326l5.7-82.4 5.8 83.8 5.7-51.6 5.8-35.2 5.7-111.3 5.8 74.9 5.7 106.8 5.8-32.5 5.7-47.3 5.8-32.9 5.7 16.6 5.8 54.1 5.7 64.7 5.8-78.6 5.7 92.8 5.8-46 5.7-1 5.8-75.5 5.7 78.9 5.8 29.2 5.7-137 5.8 102.8 5.7-19.8 5.8-8.6 5.8 9.5 5.7-65.9 5.8 37.2 5.7 62.8 5.8-32.6 5.7 44.5 5.8-14.2 5.7-58 5.8 27.4 5.7-47.3 5.8 43.5 5.7-41.3 5.8 8.9 5.7 25.2 5.8 40.7 5.7-10.2 5.8-76.2 5.7 28 5.8-25.2 5.7 65.6 5.8-.3 5.7-61.5 5.8 25.7 5.7 32.3 5.8-91.9 5.7-171.3 5.8 174.7 5.7 4.4 5.8 232.4 5.7-123.7 5.8-38.5 5.7 1.1 5.8-32.1 5.8 72.9 5.7 17.5 5.8-27.8 5.7-45.1 5.8-4.6 5.7 125 5.8-110.3 5.7-28.9 5.8 30.5 5.7-92.6 5.8 140.5 5.7 1.2 5.8-27.5 5.7-43.8 5.8 152.1 5.7-95.7 5.8-108.1 5.7 57.3 5.8 14 5.7 87.6 5.8-5.5 5.7-79.6 5.8-58.9 5.7 137.8 5.8-129.4 5.7 158.9 5.8-81.2 5.7 49.4 5.8-154.5 5.7 153.9 5.8 18.8 5.7-126.8 5.8 40.4" fill="none" color="#000"/><text transform="translate(521.2 485.9)" stroke="none" fill="#000" font-family="Arial" font-size="12" text-anchor="end" color="#000"><tspan>pages+cached+noexternal</tspan></text><path stroke="#009E73" d="M529.5 482h42.2M45.6 260.7l5.8 133.4 5.7-33.9 5.8-101 5.7 101 5.8 8.3 5.7 27.4 5.8-41.2 5.7 11.6 5.8-13.7 5.7 7.8 5.8-2.8 5.7-47.1 5.8 55.2 5.7 8.9 5.8 3.8 5.7-62 5.8.8 5.7 38.3 5.8 21.9 5.7-49.5 5.8 34 5.7 31.5 5.8 11 5.7-54.7 5.8-30.3 5.7 57.3 5.8-14.3 5.7-39.2 5.8-35.9 5.7 79.1 5.8-5.1 5.7 33.9 5.8-30.6 5.8 14 5.7-49.8 5.8-14.6 5.7 45.4 5.8 17.4 5.7-77.3 5.8 117.7 5.7-53.4 5.8-50.1 5.7 61.9 5.8-38.6 5.7 10.3 5.8-40.4 5.7 60.9 5.8-17.4 5.7 53.7 5.8-63 5.7-20.9 5.8 8.3 5.7 32.2 5.8-9.4 5.7 39.2 5.8-4.3 5.7-69.7 5.8 9.8 5.7 50.6 5.8-131.4 5.7 67.2 5.8 39.1 5.7 4.3 5.8-25.2 5.7 12.7 5.8-36.1 5.8 76.6 5.7-50.1 5.8 66.4 5.7-39.2 5.8 7.3 5.7-26.1 5.8 15.6 5.7 44.8 5.8-68.9 5.7 53 5.8-64.6 5.7 76.5 5.8-64.4 5.7 12.9 5.8 65.1 5.7-76.2 5.8 3.7 5.7-10.5 5.8 51 5.7-74.8 5.8 27.5 5.7 17.1 5.8 27.6 5.7-43.4L569 388l5.7.6 5.8-2.6 5.7 35.9 5.8-12.1 5.7-101.9 5.8 9 5.7 60.6 5.8-77.3" fill="none" color="#000"/><g fill="none" color="#000" stroke="currentColor"><path stroke="#000" d="M45.6 18.1V446H615V18.1H45.6z"/></g></svg>

<?xml version="1.0" encoding="utf-8"  standalone="no"?>
<svg 
 width="640" height="500"
 viewBox="0 0 640 500"
 xmlns="http://www.w3.org/2000/svg"
 xmlns:xlink="http://www.w3.org/1999/xlink"
>

<title>Gnuplot</title>
<desc>Produced by GNUPLOT 5.4 patchlevel 0 </desc>

<g id="gnuplot_canvas">

<rect x="0" y="0" width="640" height="500" fill="#ffffff"/>
<defs>

	<circle id='gpDot' r='0.5' stroke-width='0.5' stroke='currentColor'/>
	<path id='gpPt0' stroke-width='0.222' stroke='currentColor' d='M-1,0 h2 M0,-1 v2'/>
	<path id='gpPt1' stroke-width='0.222' stroke='currentColor' d='M-1,-1 L1,1 M1,-1 L-1,1'/>
	<path id='gpPt2' stroke-width='0.222' stroke='currentColor' d='M-1,0 L1,0 M0,-1 L0,1 M-1,-1 L1,1 M-1,1 L1,-1'/>
	<rect id='gpPt3' stroke-width='0.222' stroke='currentColor' x='-1' y='-1' width='2' height='2'/>
	<rect id='gpPt4' stroke-width='0.222' stroke='currentColor' fill='currentColor' x='-1' y='-1' width='2' height='2'/>
	<circle id='gpPt5' stroke-width='0.222' stroke='currentColor' cx='0' cy='0' r='1'/>
	<use xlink:href='#gpPt5' id='gpPt6' fill='currentColor' stroke='none'/>
	<path id='gpPt7' stroke-width='0.222' stroke='currentColor' d='M0,-1.33 L-1.33,0.67 L1.33,0.67 z'/>
	<use xlink:href='#gpPt7' id='gpPt8' fill='currentColor' stroke='none'/>
	<use xlink:href='#gpPt7' id='gpPt9' stroke='currentColor' transform='rotate(180)'/>
	<use xlink:href='#gpPt9' id='gpPt10' fill='currentColor' stroke='none'/>
	<use xlink:href='#gpPt3' id='gpPt11' stroke='currentColor' transform='rotate(45)'/>
	<use xlink:href='#gpPt11' id='gpPt12' fill='currentColor' stroke='none'/>
	<path id='gpPt13' stroke-width='0.222' stroke='currentColor' d='M0,1.330 L1.265,0.411 L0.782,-1.067 L-0.782,-1.076 L-1.265,0.411 z'/>
	<use xlink:href='#gpPt13' id='gpPt14' fill='currentColor' stroke='none'/>
	<filter id='textbox' filterUnits='objectBoundingBox' x='0' y='0' height='1' width='1'>
	  <feFlood flood-color='#FFFFFF' flood-opacity='1' result='bgnd'/>
	  <feComposite in='SourceGraphic' in2='bgnd' operator='atop'/>
	</filter>
	<filter id='greybox' filterUnits='objectBoundingBox' x='0' y='0' height='1' width='1'>
	  <feFlood flood-color='lightgrey' flood-opacity='1' result='grey'/>
	  <feComposite in='SourceGraphic' in2='grey' operator='atop'/>
	</filter>
</defs>
<g fill="none" color="#FFFFFF" stroke="black" stroke-width="1.00" stroke-linecap="butt" stroke-linejoin="miter">
</g>
<g fill="none" color="black" stroke="currentColor" stroke-width="1.00" stroke-linecap="butt" stroke-linejoin="miter">
	<path stroke='black'  d='M45.6,400.7 L54.6,400.7 M615.0,400.7 L606.0,400.7  '/>	<g transform="translate(37.3,404.6)" stroke="none" fill="black" font-family="Arial" font-size="12.00"  text-anchor="end">
		<text><tspan font-family="Arial" > 5</tspan></text>
	</g>
</g>
<g fill="none" color="black" stroke="currentColor" stroke-width="1.00" stroke-linecap="butt" stroke-linejoin="miter">
	<path stroke='black'  d='M45.6,343.0 L54.6,343.0 M615.0,343.0 L606.0,343.0  '/>	<g transform="translate(37.3,346.9)" stroke="none" fill="black" font-family="Arial" font-size="12.00"  text-anchor="end">
		<text><tspan font-family="Arial" > 6</tspan></text>
	</g>
</g>
<g fill="none" color="black" stroke="currentColor" stroke-width="1.00" stroke-linecap="butt" stroke-linejoin="miter">
	<path stroke='black'  d='M45.6,285.4 L54.6,285.4 M615.0,285.4 L606.0,285.4  '/>	<g transform="translate(37.3,289.3)" stroke="none" fill="black" font-family="Arial" font-size="12.00"  text-anchor="end">
		<text><tspan font-family="Arial" > 7</tspan></text>
	</g>
</g>
<g fill="none" color="black" stroke="currentColor" stroke-width="1.00" stroke-linecap="butt" stroke-linejoin="miter">
	<path stroke='black'  d='M45.6,227.7 L54.6,227.7 M615.0,227.7 L606.0,227.7  '/>	<g transform="translate(37.3,231.6)" stroke="none" fill="black" font-family="Arial" font-size="12.00"  text-anchor="end">
		<text><tspan font-family="Arial" > 8</tspan></text>
	</g>
</g>
<g fill="none" color="black" stroke="currentColor" stroke-width="1.00" stroke-linecap="butt" stroke-linejoin="miter">
	<path stroke='black'  d='M45.6,170.1 L54.6,170.1 M615.0,170.1 L606.0,170.1  '/>	<g transform="translate(37.3,174.0)" stroke="none" fill="black" font-family="Arial" font-size="12.00"  text-anchor="end">
		<text><tspan font-family="Arial" > 9</tspan></text>
	</g>
</g>
<g fill="none" color="black" stroke="currentColor" stroke-width="1.00" stroke-linecap="butt" stroke-linejoin="miter">
	<path stroke='black'  d='M45.6,112.4 L54.6,112.4 M615.0,112.4 L606.0,112.4  '/>	<g transform="translate(37.3,116.3)" stroke="none" fill="black" font-family="Arial" font-size="12.00"  text-anchor="end">
		<text><tspan font-family="Arial" > 10</tspan></text>
	</g>
</g>
<g fill="none" color="black" stroke="currentColor" stroke-width="1.00" stroke-linecap="butt" stroke-linejoin="miter">
	<path stroke='black'  d='M45.6,54.8 L54.6,54.8 M615.0,54.8 L606.0,54.8  '/>	<g transform="translate(37.3,58.7)" stroke="none" fill="black" font-family="Arial" font-size="12.00"  text-anchor="end">
		<text><tspan font-family="Arial" > 11</tspan></text>
	</g>
</g>
<g fill="none" color="black" stroke="currentColor" stroke-width="1.00" stroke-linecap="butt" stroke-linejoin="miter">
	<path stroke='black'  d='M45.6,446.0 L45.6,437.0 M45.6,18.1 L45.6,27.1  '/>	<g transform="translate(45.6,467.9)" stroke="none" fill="black" font-family="Arial" font-size="12.00"  text-anchor="middle">
		<text><tspan font-family="Arial" > 0</tspan></text>
	</g>
</g>
<g fill="none" color="black" stroke="currentColor" stroke-width="1.00" stroke-linecap="butt" stroke-linejoin="miter">
	<path stroke='black'  d='M103.1,446.0 L103.1,437.0 M103.1,18.1 L103.1,27.1  '/>	<g transform="translate(103.1,467.9)" stroke="none" fill="black" font-family="Arial" font-size="12.00"  text-anchor="middle">
		<text><tspan font-family="Arial" > 10</tspan></text>
	</g>
</g>
<g fill="none" color="black" stroke="currentColor" stroke-width="1.00" stroke-linecap="butt" stroke-linejoin="miter">
	<path stroke='black'  d='M160.6,446.0 L160.6,437.0 M160.6,18.1 L160.6,27.1  '/>	<g transform="translate(160.6,467.9)" stroke="none" fill="black" font-family="Arial" font-size="12.00"  text-anchor="middle">
		<text><tspan font-family="Arial" > 20</tspan></text>
	</g>
</g>
<g fill="none" color="black" stroke="currentColor" stroke-width="1.00" stroke-linecap="butt" stroke-linejoin="miter">
	<path stroke='black'  d='M218.1,446.0 L218.1,437.0 M218.1,18.1 L218.1,27.1  '/>	<g transform="translate(218.1,467.9)" stroke="none" fill="black" font-family="Arial" font-size="12.00"  text-anchor="middle">
		<text><tspan font-family="Arial" > 30</tspan></text>
	</g>
</g>
<g fill="none" color="black" stroke="currentColor" stroke-width="1.00" stroke-linecap="butt" stroke-linejoin="miter">
	<path stroke='black'  d='M275.7,446.0 L275.7,437.0 M275.7,18.1 L275.7,27.1  '/>	<g transform="translate(275.7,467.9)" stroke="none" fill="black" font-family="Arial" font-size="12.00"  text-anchor="middle">
		<text><tspan font-family="Arial" > 40</tspan></text>
	</g>
</g>
<g fill="none" color="black" stroke="currentColor" stroke-width="1.00" stroke-linecap="butt" stroke-linejoin="miter">
	<path stroke='black'  d='M333.2,446.0 L333.2,437.0 M333.2,18.1 L333.2,27.1  '/>	<g transform="translate(333.2,467.9)" stroke="none" fill="black" font-family="Arial" font-size="12.00"  text-anchor="middle">
		<text><tspan font-family="Arial" > 50</tspan></text>
	</g>
</g>
<g fill="none" color="black" stroke="currentColor" stroke-width="1.00" stroke-linecap="butt" stroke-linejoin="miter">
	<path stroke='black'  d='M390.7,446.0 L390.7,437.0 M390.7,18.1 L390.7,27.1  '/>	<g transform="translate(390.7,467.9)" stroke="none" fill="black" font-family="Arial" font-size="12.00"  text-anchor="middle">
		<text><tspan font-family="Arial" > 60</tspan></text>
	</g>
</g>
<g fill="none" color="black" stroke="currentColor" stroke-width="1.00" stroke-linecap="butt" stroke-linejoin="miter">
	<path stroke='black'  d='M448.2,446.0 L448.2,437.0 M448.2,18.1 L448.2,27.1  '/>	<g transform="translate(448.2,467.9)" stroke="none" fill="black" font-family="Arial" font-size="12.00"  text-anchor="middle">
		<text><tspan font-family="Arial" > 70</tspan></text>
	</g>
</g>
<g fill="none" color="black" stroke="currentColor" stroke-width="1.00" stroke-linecap="butt" stroke-linejoin="miter">
	<path stroke='black'  d='M505.7,446.0 L505.7,437.0 M505.7,18.1 L505.7,27.1  '/>	<g transform="translate(505.7,467.9)" stroke="none" fill="black" font-family="Arial" font-size="12.00"  text-anchor="middle">
		<text><tspan font-family="Arial" > 80</tspan></text>
	</g>
</g>
<g fill="none" color="black" stroke="currentColor" stroke-width="1.00" stroke-linecap="butt" stroke-linejoin="miter">
	<path stroke='black'  d='M563.2,446.0 L563.2,437.0 M563.2,18.1 L563.2,27.1  '/>	<g transform="translate(563.2,467.9)" stroke="none" fill="black" font-family="Arial" font-size="12.00"  text-anchor="middle">
		<text><tspan font-family="Arial" > 90</tspan></text>
	</g>
</g>
<g fill="none" color="black" stroke="currentColor" stroke-width="1.00" stroke-linecap="butt" stroke-linejoin="miter">
</g>
<g fill="none" color="black" stroke="currentColor" stroke-width="1.00" stroke-linecap="butt" stroke-linejoin="miter">
	<path stroke='black'  d='M45.6,18.1 L45.6,446.0 L615.0,446.0 L615.0,18.1 L45.6,18.1 Z  '/></g>
<g fill="none" color="black" stroke="currentColor" stroke-width="1.00" stroke-linecap="butt" stroke-linejoin="miter">
</g>
	<g id="gnuplot_plot_1" ><title>pages+cached+noadtech</title>
<g fill="none" color="black" stroke="currentColor" stroke-width="1.00" stroke-linecap="butt" stroke-linejoin="miter">
	<g transform="translate(271.5,485.9)" stroke="none" fill="black" font-family="Arial" font-size="12.00"  text-anchor="end">
		<text><tspan font-family="Arial" >pages+cached+noadtech</tspan></text>
	</g>
</g>
<g fill="none" color="black" stroke="currentColor" stroke-width="1.00" stroke-linecap="butt" stroke-linejoin="miter">
	<path stroke='rgb(148,   0, 211)'  d='M279.8,482.0 L322.0,482.0 M45.6,267.2 L51.4,229.3 L57.1,266.6 L62.9,301.3 L68.6,246.7 L74.4,260.8
		L80.1,278.3 L85.9,247.1 L91.6,203.2 L97.4,326.0 L103.1,243.6 L108.9,327.4 L114.6,275.8 L120.4,240.6
		L126.1,129.3 L131.9,204.2 L137.6,311.0 L143.4,278.5 L149.1,231.2 L154.9,198.3 L160.6,214.9 L166.4,269.0
		L172.1,333.7 L177.9,255.1 L183.6,347.9 L189.4,301.9 L195.1,300.9 L200.9,225.4 L206.6,304.3 L212.4,333.5
		L218.1,196.5 L223.9,299.3 L229.6,279.5 L235.4,270.9 L241.2,280.4 L246.9,214.5 L252.7,251.7 L258.4,314.5
		L264.2,281.9 L269.9,326.4 L275.7,312.2 L281.4,254.2 L287.2,281.6 L292.9,234.3 L298.7,277.8 L304.4,236.5
		L310.2,245.4 L315.9,270.6 L321.7,311.3 L327.4,301.1 L333.2,224.9 L338.9,252.9 L344.7,227.7 L350.4,293.3
		L356.2,293.0 L361.9,231.5 L367.7,257.2 L373.4,289.5 L379.2,197.6 L384.9,26.3 L390.7,201.0 L396.4,205.4
		L402.2,437.8 L407.9,314.1 L413.7,275.6 L419.4,276.7 L425.2,244.6 L431.0,317.5 L436.7,335.0 L442.5,307.2
		L448.2,262.1 L454.0,257.5 L459.7,382.5 L465.5,272.2 L471.2,243.3 L477.0,273.8 L482.7,181.2 L488.5,321.7
		L494.2,322.9 L500.0,295.4 L505.7,251.6 L511.5,403.7 L517.2,308.0 L523.0,199.9 L528.7,257.2 L534.5,271.2
		L540.2,358.8 L546.0,353.3 L551.7,273.7 L557.5,214.8 L563.2,352.6 L569.0,223.2 L574.7,382.1 L580.5,300.9
		L586.2,350.3 L592.0,195.8 L597.7,349.7 L603.5,368.5 L609.2,241.7 L615.0,282.1  '/></g>
	</g>
	<g id="gnuplot_plot_2" ><title>pages+cached+noexternal</title>
<g fill="none" color="black" stroke="currentColor" stroke-width="1.00" stroke-linecap="butt" stroke-linejoin="miter">
	<g transform="translate(521.2,485.9)" stroke="none" fill="black" font-family="Arial" font-size="12.00"  text-anchor="end">
		<text><tspan font-family="Arial" >pages+cached+noexternal</tspan></text>
	</g>
</g>
<g fill="none" color="black" stroke="currentColor" stroke-width="1.00" stroke-linecap="butt" stroke-linejoin="miter">
	<path stroke='rgb(  0, 158, 115)'  d='M529.5,482.0 L571.7,482.0 M45.6,260.7 L51.4,394.1 L57.1,360.2 L62.9,259.2 L68.6,360.2 L74.4,368.5
		L80.1,395.9 L85.9,354.7 L91.6,366.3 L97.4,352.6 L103.1,360.4 L108.9,357.6 L114.6,310.5 L120.4,365.7
		L126.1,374.6 L131.9,378.4 L137.6,316.4 L143.4,317.2 L149.1,355.5 L154.9,377.4 L160.6,327.9 L166.4,361.9
		L172.1,393.4 L177.9,404.4 L183.6,349.7 L189.4,319.4 L195.1,376.7 L200.9,362.4 L206.6,323.2 L212.4,287.3
		L218.1,366.4 L223.9,361.3 L229.6,395.2 L235.4,364.6 L241.2,378.6 L246.9,328.8 L252.7,314.2 L258.4,359.6
		L264.2,377.0 L269.9,299.7 L275.7,417.4 L281.4,364.0 L287.2,313.9 L292.9,375.8 L298.7,337.2 L304.4,347.5
		L310.2,307.1 L315.9,368.0 L321.7,350.6 L327.4,404.3 L333.2,341.3 L338.9,320.4 L344.7,328.7 L350.4,360.9
		L356.2,351.5 L361.9,390.7 L367.7,386.4 L373.4,316.7 L379.2,326.5 L384.9,377.1 L390.7,245.7 L396.4,312.9
		L402.2,352.0 L407.9,356.3 L413.7,331.1 L419.4,343.8 L425.2,307.7 L431.0,384.3 L436.7,334.2 L442.5,400.6
		L448.2,361.4 L454.0,368.7 L459.7,342.6 L465.5,358.2 L471.2,403.0 L477.0,334.1 L482.7,387.1 L488.5,322.5
		L494.2,399.0 L500.0,334.6 L505.7,347.5 L511.5,412.6 L517.2,336.4 L523.0,340.1 L528.7,329.6 L534.5,380.6
		L540.2,305.8 L546.0,333.3 L551.7,350.4 L557.5,378.0 L563.2,334.6 L569.0,388.0 L574.7,388.6 L580.5,386.0
		L586.2,421.9 L592.0,409.8 L597.7,307.9 L603.5,316.9 L609.2,377.5 L615.0,300.2  '/></g>
	</g>
<g fill="none" color="#FFFFFF" stroke="rgb(  0, 158, 115)" stroke-width="2.00" stroke-linecap="butt" stroke-linejoin="miter">
</g>
<g fill="none" color="black" stroke="currentColor" stroke-width="2.00" stroke-linecap="butt" stroke-linejoin="miter">
</g>
<g fill="none" color="black" stroke="black" stroke-width="1.00" stroke-linecap="butt" stroke-linejoin="miter">
</g>
<g fill="none" color="black" stroke="currentColor" stroke-width="1.00" stroke-linecap="butt" stroke-linejoin="miter">
	<path stroke='black'  d='M45.6,18.1 L45.6,446.0 L615.0,446.0 L615.0,18.1 L45.6,18.1 Z  '/></g>
<g fill="none" color="black" stroke="currentColor" stroke-width="1.00" stroke-linecap="butt" stroke-linejoin="miter">
</g>
</g>
</svg>
